X:275
T: Deutscher dantz
N: A0316
O: Europa, Mitteleuropa, Deutschland
N: Hainhofer, Lautenbuch II. 1603. Bl. 9b Hs. in Wolfenbuettel.
R: Romanze, Ballade, Lied
M: 4/2
L: 1/4
K: A
AB | c2B2c2d2 | e4c2
e2 | d2c2B2e2 | c4z2
AB | c2B2c2d2 | e4c2
e2 | d2c2B2e2 | c4z2
c2 | c2B2A2=G2 | F2EDE2
BA | G2FEFEC^D | E4z2
FG | A2A2B2B2 | c2e2dc
BA | B2A2A2G2 | A4z2

